img/vector-14.svg

<svg fill="none" height="25" viewBox="0 0 32 25" width="32" xmlns="http://www.w3.org/2000/svg"><path d="m29.8878 11.9712 1.9938 10.6007c.1755.9333-.4408 1.8317-1.3747 2.0039-.7554.1393-1.5112-.2405-1.8503-.9297l-3.6554-7.4306c-2.7326-5.5547-9.0829-8.31701-15.00949-6.52898l-2.46876.74478c-3.28774.9919-6.608121-1.44706-6.644901-4.88097l-.056457-5.27105 17.912408 1.58007c5.5636.49078 10.1215 4.62284 11.1538 10.11185z" fill="#241ed3"/></svg>

<svg width="32" height="25" viewBox="0 0 32 25" fill="none" xmlns="http://www.w3.org/2000/svg">
<path d="M29.8878 11.9712L31.8816 22.5719C32.0571 23.5052 31.4408 24.4036 30.5069 24.5758C29.7515 24.7151 28.9957 24.3353 28.6566 23.6461L25.0012 16.2155C22.2686 10.6608 15.9183 7.89849 9.99171 9.68652L7.52295 10.4313C4.23521 11.4232 0.914829 8.98424 0.878049 5.55033L0.821592 0.27928L18.734 1.85935C24.2976 2.35013 28.8555 6.48219 29.8878 11.9712Z" fill="#241ED3"/>
</svg>
